X: 14943
T: Gavottes Des Montagnes
R: polka
M: 2/4
K: Bminor
|:Bc de|fg fe|d/c/B dc|B2 BA:|
|:Bc de|fg af|fg ef|d2 dc|
Bc de|fg fe|d/c/B dc|B2 BA:|

